icons/folder-cross-outline.svg

<svg xmlns="http://www.w3.org/2000/svg" width="24" height="24" viewBox="0 0 24 24">
  <path d="M11,4 C11.2652165,4 11.5195704,4.10535684 11.7071068,4.29289322 L11.7071068,4.29289322 L13.415,6 L19,6 C20.5976809,6 21.9036609,7.24891996 21.9949073,8.82372721 L21.9949073,8.82372721 L22,9 L22,17 C22,18.6568542 20.6568542,20 19,20 L19,20 L5,20 C3.34314575,20 2,18.6568542 2,17 L2,17 L2,7 C2,5.34314575 3.34314575,4 5,4 L5,4 Z M10.585,6 L5,6 C4.44771525,6 4,6.44771525 4,7 L4,7 L4,17 C4,17.5522847 4.44771525,18 5,18 L5,18 L19,18 C19.5522847,18 20,17.5522847 20,17 L20,17 L20,9 C20,8.44771525 19.5522847,8 19,8 L19,8 L13,8 C12.7347835,8 12.4804296,7.89464316 12.2928932,7.70710678 L12.2928932,7.70710678 L10.585,6 Z M10.6128994,10.2097046 L10.7071068,10.2928932 L12,11.585 L13.2928932,10.2928932 C13.6834175,9.90236893 14.3165825,9.90236893 14.7071068,10.2928932 C15.0675907,10.6533772 15.0953203,11.2206082 14.7902954,11.6128994 L14.7071068,11.7071068 L13.415,13 L14.7071068,14.2928932 C15.0976311,14.6834175 15.0976311,15.3165825 14.7071068,15.7071068 C14.3466228,16.0675907 13.7793918,16.0953203 13.3871006,15.7902954 L13.2928932,15.7071068 L12,14.415 L10.7071068,15.7071068 C10.3165825,16.0976311 9.68341751,16.0976311 9.29289322,15.7071068 C8.93240926,15.3466228 8.90467972,14.7793918 9.20970461,14.3871006 L9.29289322,14.2928932 L10.585,13 L9.29289322,11.7071068 C8.90236893,11.3165825 8.90236893,10.6834175 9.29289322,10.2928932 C9.65337718,9.93240926 10.2206082,9.90467972 10.6128994,10.2097046 Z"/>
</svg>

<svg xmlns="http://www.w3.org/2000/svg" viewBox="0 0 24 24">
  <path d="M11 4a1 1 0 0 1 .7.3L13.42 6H19a3 3 0 0 1 3 2.82V17a3 3 0 0 1-3 3H5a3 3 0 0 1-3-3V7a3 3 0 0 1 3-3zm-.41 2H5a1 1 0 0 0-1 1v10a1 1 0 0 0 1 1h14a1 1 0 0 0 1-1V9a1 1 0 0 0-1-1h-6a1 1 0 0 1-.7-.3L10.58 6zm.02 4.21.1.08L12 11.6l1.3-1.3a1 1 0 0 1 1.49 1.32l-.08.1L13.4 13l1.3 1.3a1 1 0 0 1-1.32 1.49l-.1-.08L12 14.4l-1.3 1.3a1 1 0 0 1-1.49-1.32l.08-.1L10.6 13l-1.3-1.3a1 1 0 0 1 1.32-1.49z"/>
</svg>
